X: 43
T: String Quartet No. 11 in F Minor, Op. 95 (Serioso) mvt 2
C: Ludwig van Beethoven
%%abc-version 2.0
%%abcx-abcm2ps-target-version 5.9.1 (29 Sep 2008)
%%abc-creator hum2abc beta
%%abcx-conversion-date 2021/01/27 10:01:14
%%gracespace 0 6 6
%%humdrum-veritas 333289274
%%humdrum-veritas-data 1350731080
%%linebreak <none>
%%barnumbers 0
L: 1/8
M: 2/4
N: Derived from quartet11-2.krn
Q: "Allegretto ma non troppo" 1/4=60
%%staves [1 2 3 4]
V: 1 clef=treble
V: 2 clef=treble
V: 3 clef=alto
V: 4 clef=bass
K: D
[V:1] z4 | 
[V:2] z4 | 
[V:3] z4 | 
[V:4] D,> z C,3/ z/ | 
[V:1] z4 | 
[V:2] z4 | 
[V:3] z4 | 
[V:4] B,,> z A,,3/ z/ | 
[V:1] z4 | 
[V:2] z4 | 
[V:3] z4 | 
[V:4] G,,> z .F,,.^G,, | 
[V:1] z4 | 
[V:2] z4 | 
[V:3] z4 | 
[V:4] A,,4 | 
[V:1] D2F2- | 
[V:2] DA, D=C | 
[V:3] z2=CA, | 
[V:4] z2D,2- | 
[V:1] F2.E.F | 
[V:2] D=C DC | 
[V:3] =CA, CA, | 
[V:4] D,4 | 
[V:1] G3A | 
[V:2] D_B, D=C | 
[V:3] _B,G, B,A, | 
[V:4] G,,4- | 
[V:1] _B2AA | 
[V:2] _B,C DF | 
[V:3] G,E, F,A, | 
[V:4] G,,2D,, z | 
[V:1] Ad cd | 
[V:2] FF GF | 
[V:3] DA, ED | 
[V:4] D, zz2 | 
[V:1] e>c AA | 
[V:2] EG FG | 
[V:3] CE ^DE | 
[V:4] A,, z z C, | 
[V:1] A2B2- | 
[V:2] F2=F2- | 
[V:3] =D2D2- | 
[V:4] D,F, D,^G, | 
[V:1] B2A z | 
[V:2] F2E z | 
[V:3] D2CA, | 
[V:4] A,,^G, A, z | 
[V:1] G4 | 
[V:2] E4 | 
[V:3] _B,A, CA, | 
[V:4] A,,2z2 | 
[V:1] F3d | 
[V:2] D3D | 
[V:3] _B,A, DA, | 
[V:4] A,,2z F, | 
[V:1] c2d2 | 
[V:2] z G z F | 
[V:3] G,A, F,A, | 
[V:4] E,2D,2 | 
[V:1] fe- e/d//c//.B/.A/ | 
[V:2] E2z2 | 
[V:3] E,A, A,A, | 
[V:4] C, zz2 | 
[V:1] _BA cA | 
[V:2] C2_BA | 
[V:3] G,A, G,A, | 
[V:4] E,4 | 
[V:1] fd =ca | 
[V:2] AF AF | 
[V:3] F,A, F,A, | 
[V:4] D,D,^D,2- | 
[V:1] =Ba Bg | 
[V:2] AF GE | 
[V:3] F,B, G,B, | 
[V:4] D,^D,E,2- | 
[V:1] ^Ag =Ag | 
[V:2] G_B, GA, | 
[V:3] G,C G,C | 
[V:4] E,E,2E,,- | 
[V:1] Ag fd | 
[V:2] GC DA, | 
[V:3] G,A, A,D,- | 
[V:4] E,,E,, F,,F,, | 
[V:1] BG/E/ .C.A | 
[V:2] =B,B, .C.C | 
[V:3] D,E, .E,.E, | 
[V:4] G,,G,, A,,A,, | 
[V:1] [A,F] zz2 | 
[V:2] [=C_E]> zz2 | 
[V:3] z2D3/ z/ | 
[V:4] D,, zz2 | 
[V:1] [^A,G] zz2 | 
[V:2] [C=E]> zz2 | 
[V:3] z2D3/ z/ | 
[V:4] D,, zz2 | 
[V:1] =af dB | 
[V:2] z d AD | 
[V:3] z4 | 
[V:4] z D, F,G, | 
[V:1] AF EA | 
[V:2] DA, CE | 
[V:3] FD A,C | 
[V:4] A,A,, A,,A,, | 
[V:1] [A,F] zz2 | 
[V:2] [=C_E]> zz2 | 
[V:3] z2D3/ z/ | 
[V:4] D,, zz2 | 
[V:1] [^A,G] zz2 | 
[V:2] [C=E]> zz2 | 
[V:3] z2D3/ z/ | 
[V:4] D,, zz2 | 
[V:1] =af d'b | 
[V:2] fd AD | 
[V:3] z4 | 
[V:4] z D FG | 
[V:1] af ea | 
[V:2] FD CC | 
[V:3] dA GE | 
[V:4] AA, A,A,- | 
[V:1] zA2G | 
[V:2] F3d- | 
[V:3] D3D- | 
[V:4] A,F, D,B,,- | 
[V:1] Ff ea | 
[V:2] dF E[Ec] | 
[V:3] DD CA, | 
[V:4] B,,/A,,/F,,/D,,/ .A,,.A,, | 
[V:1] f z g z | 
[V:2] [Fd] z [Ec] z | 
[V:3] A, z ^A, z | 
[V:4] D,, z D,, z | 
[V:1] f2z2 | 
[V:2] [F2d2]z2 | 
[V:3] =A,2z A | 
[V:4] D,,2z2 | 
[V:1] z4 | 
[V:2] z4 | 
[V:3] d3c | 
[V:4] z4 | 
[V:1] z4 | 
[V:2] z4 | 
[V:3] =cA/_B/ cA | 
[V:4] z4 | 
[V:1] z4 | 
[V:2] z4 | 
[V:3] _BG/A/ B/A/B/G/ | 
[V:4] z4 | 
[V:1] z4 | 
[V:2] z2z D | 
[V:3] _ED C=C- | 
[V:4] z4 | 
[V:1] z4 | 
[V:2] A3^G | 
[V:3] CA, =B,.B, | 
[V:4] z4 | 
[V:1] z4 | 
[V:2] =GE/F/ GE | 
[V:3] z =C ^C.C | 
[V:4] z4 | 
[V:1] z4 | 
[V:2] FD/E/ =F/E/F/D/ | 
[V:3] zD2D,- | 
[V:4] z4 | 
[V:1] z4 | 
[V:2] _B,A,^G,2 | 
[V:3] D,D,/E,/ =F,/E,/F,/D,/ | 
[V:4] z4 | 
[V:1] z4 | 
[V:2] _B,A, =G,G- | 
[V:3] C,C/D/ E/D/E/C/ | 
[V:4] z2z A,, | 
[V:1] z4 | 
[V:2] G/F/D E.E | 
[V:3] A,F,G,2 | 
[V:4] D,3C, | 
[V:1] z4 | 
[V:2] z =F ^F.F | 
[V:3] A,2D,2- | 
[V:4] =C,A,,/_B,,/ C,A,, | 
[V:1] z4 | 
[V:2] zG2G,- | 
[V:3] D,2_B,2 | 
[V:4] _B,,G,,/A,,/ B,,/A,,/B,,/G,,/ | 
[V:1] z2z e | 
[V:2] G,G/A/ _B/A/B/G/ | 
[V:3] _B,B, G,G/E/ | 
[V:4] _E,,D,, C,,=C,,- | 
[V:1] a3^g | 
[V:2] =F4 | 
[V:3] =C=C, D,.D, | 
[V:4] C,,A,, =B,,.B,, | 
[V:1] =ge/f/ ge | 
[V:2] G,2A,2 & E4 | 
[V:3] ^A,2E,2 | 
[V:4] z =C, ^C,.C, | 
[V:1] fd/e/ =f/e/f/d/ | 
[V:2] A,[_B,D][B,2=F2] | 
[V:3] D,=F,3- | 
[V:4] zD,2D,,- | 
[V:1] _BA^G2 | 
[V:2] [_B,F]=F =B,B | 
[V:3] F,2z =F | 
[V:4] D,,D,,/E,,/ =F,,/E,,/F,,/D,,/ | 
[V:1] A=G Fd | 
[V:2] E_E A,[FA] | 
[V:3] A,2_ED/A,/ | 
[V:4] C,,=C,,/D,,/ _E,,/D,,/C,,/=C,/ | 
[V:1] d=f =Bb | 
[V:2] [F/A/]G/D/=E/ =F/E/F/D/ | 
[V:3] _B,2z2 | 
[V:4] _B,,A,,^G,,2 | 
[V:1] e_e A/a/_a | 
[V:2] C=C/D/ _E/D/C/D/ | 
[V:3] z2z D | 
[V:4] A,,=G,, F,,=F,, | 
[V:1] _a/g/G =AA | 
[V:2] B, zz2 | 
[V:3] G3F | 
[V:4] =F,,_E,, D,,D, | 
[V:1] z _B =B.B | 
[V:2] z2z G | 
[V:3] =FD/_E/ FD | 
[V:4] D,_A,, G,,=F, | 
[V:1] z _A/G/ =FG | 
[V:2] =c3B | 
[V:3] D/=C/=C, D,.D, | 
[V:4] _E, z z G,, | 
[V:1] z _B,/_A,/ G,g | 
[V:2] _BG/_A/ BG | 
[V:3] z _E, =E,E, | 
[V:4] C,3=C, | 
[V:1] _d'3=c' | 
[V:2] G_f _e.e | 
[V:3] E,_B,/_A,/ G,A,- | 
[V:4] _B,,G,,/_A,,/ B,,_E,, | 
[V:1] _c'3_b | 
[V:2] z d _dd | 
[V:3] A,_A,/G,/ =F,G, | 
[V:4] _E,,4 | 
[V:1] _f3_e | 
[V:2] _d_B/_A/ GA | 
[V:3] G,_D/_C/ _B,C | 
[V:4] _E,,4 | 
[V:1] d3c | 
[V:2] _AA/G/ =FG | 
[V:3] _CC/_B,/ _A,B, | 
[V:4] _E,,3_F,, | 
[V:1] c4 | 
[V:2] _B2_B,2 | 
[V:3] E,2_E,2 | 
[V:4] G,,4 | 
[V:1] c2=c2 | 
[V:2] _B,2_A,2 | 
[V:3] ^D,2=C2 | 
[V:4] G,2_A,2 | 
[V:1] z4 | 
[V:2] z4 | 
[V:3] z4 | 
[V:4] _A,> z G,3/ z/ | 
[V:1] _a4 | 
[V:2] =f4 | 
[V:3] z4 | 
[V:4] =F,> z _E,3/ z/ | 
[V:1] _a4 | 
[V:2] =f4 | 
[V:3] z2d2 | 
[V:4] _D,> z =C,3/ z/ | 
[V:1] g4 | 
[V:2] =f2_e z | 
[V:3] d2G z | 
[V:4] B,,> z =C,3/ z/ | 
[V:1] z4 | 
[V:2] z4 | 
[V:3] z4 | 
[V:4] _G,> z =F,3/ z/ | 
[V:1] _g4 | 
[V:2] _e4 | 
[V:3] z4 | 
[V:4] _E,> z _D,3/ z/ | 
[V:1] _g4 | 
[V:2] _e4 | 
[V:3] z2=c2- | 
[V:4] _C,> z _B,,3/ z/ | 
[V:1] =f4 | 
[V:2] _e2_d z | 
[V:3] c2=F z | 
[V:4] A,,> z _B,,3/ z/ | 
[V:1] z4 | 
[V:2] z4 | 
[V:3] z4 | 
[V:4] _F,> z _E,3/ z/ | 
[V:1] e4- | 
[V:2] c4- | 
[V:3] z4 | 
[V:4] C,> z =B,,3/ z/ | 
[V:1] e2g2- | 
[V:2] c2c2- | 
[V:3] z2E2- | 
[V:4] _B,,> zA,,2- | 
[V:1] g4 | 
[V:2] c4 | 
[V:3] E4 | 
[V:4] A,,4 | 
[V:1] z4 | 
[V:2] z4 | 
[V:3] _B4 | 
[V:4] z4 | 
[V:1] z .c/.d/ .c/.d/.e/g/- | 
[V:2] z4 | 
[V:3] _B3A | 
[V:4] z4 | 
[V:1] g/.f/.a/.d/ .e/.a/ z | 
[V:2] z4 | 
[V:3] d3c | 
[V:4] z4 | 
[V:1] z/ .a/.d'/.g/ .f/.d'/ z | 
[V:2] z4 | 
[V:3] =cA/_B/ cA | 
[V:4] z4 | 
[V:1] z/ .g/.^a/._e/ .d/.g/.G/.=e/ | 
[V:2] z2z D | 
[V:3] _BG/A/ B/A/B/D/- | 
[V:4] z4 | 
[V:1] .e/.E/ z z/ B/d/^G/ | 
[V:2] A3^G | 
[V:3] D/.C/.E/.A,/ .=B,/.E/ z | 
[V:4] z4 | 
[V:1] e/=G/ z z/ e/g/c/ | 
[V:2] =GE/F/ GE- | 
[V:3] z/ .E,/.A,/.C,/ .C,/.A,/.C,/._B,/ | 
[V:4] z2z G,, | 
[V:1] e/G/ z z a | 
[V:2] E/._B,/.E/.G,/ .=A,/.E/.A,/.=F/ | 
[V:3] .G,/.E,/ z z/ A/=c/=F/ | 
[V:4] C,3=C, | 
[V:1] d'3c' | 
[V:2] z/ .^G/.B/.=F/ .E/.G/.E/.A/ | 
[V:3] =F/D/ z z/ E/A/A,/ | 
[V:4] B,,^G,,/A,,/ B,,E,, | 
[V:1] =c'a/b/ c'b- | 
[V:2] z/ .A/.=c/.F/ z/ .^G/.B/.=F/ | 
[V:3] z F/A,/ z =F/^G,/ | 
[V:4] ^D,,2=D,,2 | 
[V:1] b^g/a/ b/a/g/d'/- | 
[V:2] z/ .^G/.e/.A/ .e/.A/.d/.B/ | 
[V:3] z E/E,/ z E | 
[V:4] C,,=C,,- C,,/=C,/B,,/E,,/ | 
[V:1] d'/.=c'/.A/.e/ .=c/.A/.d/.A/ | 
[V:2] =c zz2 | 
[V:3] A,3_B, | 
[V:4] A,, zz2 | 
[V:1] .d/.A/.=f/.e/ .d/.^G/.f/.G/ | 
[V:2] z4 | 
[V:3] =B,D/C/ B,D- | 
[V:4] z2z D,, | 
[V:1] .e/.a/ zz2 | 
[V:2] z/ .E/.E/.A,/ .^A,/.E/.B,/.E/ | 
[V:3] DCz2 | 
[V:4] A,,3^G,, | 
[V:1] z4 | 
[V:2] .C/.E/.C/.^A/ .C/.A/.C/.=A/ | 
[V:3] z2z A, | 
[V:4] =G,,E,,/F,,/ .G,,G,,- | 
[V:1] z/ .D/.D/.A/ F/D/G/C/ | 
[V:2] .A/.D/ zz2 | 
[V:3] D,3^D, | 
[V:4] G,,F,,z2 | 
[V:1] G/=C/_B/A/ G/C/B/C/ | 
[V:2] z4 | 
[V:3] E,G,/F,/ E,G,- | 
[V:4] z2z G,, | 
[V:1] A/d/ zz2 | 
[V:2] z/ .A/.A/.D/ _E/A/=E/A/ | 
[V:3] G,F,z2 | 
[V:4] D,3C, | 
[V:1] z4 | 
[V:2] =F/A/^F/d/ F/d/F/d/ | 
[V:3] z2z D | 
[V:4] =C,A,,/^A,,/ .C,C,- | 
[V:1] z B,=F2- | 
[V:2] .=F/.d/.F/.d/ .B,/.D/.B,/.D/ | 
[V:3] G,4- | 
[V:4] C,B,, z D, | 
[V:1] F.D/.B,/ .B/.D/._B/.G/ | 
[V:2] .B,/.D/B =fe | 
[V:3] G,3G, | 
[V:4] G,,3=C, | 
[V:1] z E_B2 | 
[V:2] .G/._B/._B,/.G/ .G,/.E/.G,/.E/ | 
[V:3] =C,4- | 
[V:4] z2z G,, | 
[V:1] _B.G/.E/ .e/.G/._e/.A/ | 
[V:2] .G,/.E/e _ba | 
[V:3] C,3=C | 
[V:4] C,,3F,, | 
[V:1] z A,_E2 | 
[V:2] ._E/.=c/.=C/.E/ .A,/.C/.A,/.C/ | 
[V:3] F,4- | 
[V:4] z2z =C, | 
[V:1] _E.=C/.A,/ .=c/.A/.^G/.=F/ | 
[V:2] .A,/.=C/A _ed | 
[V:3] F,3D | 
[V:4] F,,3B,, | 
[V:1] z B,=F2- | 
[V:2] =F/d/D/F/ B,/D/B,/D/ | 
[V:3] ^G,4- | 
[V:4] z2z D, | 
[V:1] F.=F/.D/ .B/.D/d | 
[V:2] .B,/.D/B =f.D/.A/ | 
[V:3] G,3=F- | 
[V:4] ^G,,3A,, | 
[V:1] a3d | 
[V:2] .D/.A/.A/.d/ .^G/.d/.G/.d/ | 
[V:3] F=FB,2- | 
[V:4] A,,3=F, | 
[V:1] g3c | 
[V:2] =G/d/G/d/ G/c/G/c/ | 
[V:3] B,E_B,2 | 
[V:4] A,,3E, | 
[V:1] g3=c | 
[V:2] G/=c/G/c/ G/c/F/c/ | 
[V:3] _B,_E A,A, | 
[V:4] A,,3D, | 
[V:1] =fB e_B | 
[V:2] =F/B/F/B/ _B/c/C/E/ | 
[V:3] G,^G =GG | 
[V:4] D,,D, D,,D, | 
[V:1] eG cE | 
[V:2] G/_B/_B,/C/ E/G/G,/C/ | 
[V:3] C=E G,_B, | 
[V:4] D,,D, D,,D, | 
[V:1] _BC G_B, | 
[V:2] G,/C/_B,/C/ G,/C/B,/C/ | 
[V:3] E,G, E,G, | 
[V:4] D,,D, D,,D, | 
[V:1] G z z _B, | 
[V:2] G,/C/ z z ._B,/.C/ | 
[V:3] E, z z G, | 
[V:4] D,, z z D, | 
[V:1] G z z C | 
[V:2] .G,/.C/ z z ._B,/.C/ | 
[V:3] E, z z G, | 
[V:4] D,, z z D, | 
[V:1] Dz2z | 
[V:2] .A,/.D/ zz2 | 
[V:3] F, zz2 | 
[V:4] D,> z C,3/ z/ | 
[V:1] z4 | 
[V:2] z4 | 
[V:3] z4 | 
[V:4] B,,> z A,,3/ z/ | 
[V:1] z4 | 
[V:2] z4 | 
[V:3] z4 | 
[V:4] G,,> z .F,,.^G,, | 
[V:1] zA2B/c/ | 
[V:2] zG2G | 
[V:3] zE2E | 
[V:4] A,,4 | 
[V:1] d2f2- | 
[V:2] FA dA | 
[V:3] DF AF | 
[V:4] z2D2- | 
[V:1] f2ef | 
[V:2] d=c dc | 
[V:3] =cA cA | 
[V:4] D4 | 
[V:1] g2-g//a//g//f//.g/.a/ | 
[V:2] d_B d=c | 
[V:3] _BG BA | 
[V:4] G,2G2 | 
[V:1] _b2aa | 
[V:2] _Bc df | 
[V:3] GE FA | 
[V:4] G2D2 | 
[V:1] ad' c'd' | 
[V:2] ff gf | 
[V:3] Ad ed | 
[V:4] D2z2 | 
[V:1] e'>c' aa | 
[V:2] eg fg | 
[V:3] ce ^de | 
[V:4] A,2z C | 
[V:1] a2b2- | 
[V:2] f2=f2- | 
[V:3] =d2d2- | 
[V:4] DF D^G | 
[V:1] b2a z | 
[V:2] f2e z | 
[V:3] d2c z | 
[V:4] A,^G AA | 
[V:1] g4 | 
[V:2] e4 | 
[V:3] A,z2z | 
[V:4] [K:clef=tenor]_BA cA | 
[V:1] f3d' | 
[V:2] d3d | 
[V:3] A, z z F | 
[V:4] _BA dA | 
[V:1] c'2d'2 | 
[V:2] cg z f | 
[V:3] E2D2 | 
[V:4] GA FA | 
[V:1] f'e'- e'/d'//c'//.b/.a/ | 
[V:2] z [ce]z2 | 
[V:3] CA AA | 
[V:4] Ez2z | 
[V:1] _ba c'a | 
[V:2] c2_BA | 
[V:3] GA GA | 
[V:4] E4 | 
[V:1] d'a =c'a | 
[V:2] ff af | 
[V:3] FA FA | 
[V:4] DD^D2- | 
[V:1] =ba bg | 
[V:2] af f=B | 
[V:3] FB FG | 
[V:4] D^D2E- | 
[V:1] ^ag =ag | 
[V:2] g^A g=A | 
[V:3] Gc G,C | 
[V:4] EE2[K:clef=bass]E,- | 
[V:1] ag af/d'/ | 
[V:2] gA fA | 
[V:3] G,C A,D- | 
[V:4] E,E, F,F, | 
[V:1] bg/e/ .c.a | 
[V:2] BB .G.e | 
[V:3] DE .E.[Ec] | 
[V:4] G,G, .A,.A, | 
[V:1] [Af]z2z | 
[V:2] ^d> zz2 | 
[V:3] =c> zz2 | 
[V:4] D z[K:clef=tenor] d3/ z/ | 
[V:1] [^A2g2]z2 | 
[V:2] e2z2 | 
[V:3] c2z2 | 
[V:4] [K:clef=bass]D z[K:clef=tenor] d3/ z/ | 
[V:1] =af d'b | 
[V:2] z A =dB | 
[V:3] fd AG | 
[V:4] [K:clef=bass]z D FG | 
[V:1] af ea | 
[V:2] AF EE | 
[V:3] FD CC | 
[V:4] AA, A,A, | 
[V:1] [A,F]z2z | 
[V:2] [C_E]> zz2 | 
[V:3] z2D3/ z/ | 
[V:4] D, z D3/ z/ | 
[V:1] [^A,G]z2z | 
[V:2] [C=E]> zz2 | 
[V:3] z2D3/ z/ | 
[V:4] D, z D3/ z/ | 
[V:1] =AF dB | 
[V:2] FD AG | 
[V:3] z2z d | 
[V:4] z D, F,G, | 
[V:1] AF EC | 
[V:2] FD CA | 
[V:3] dA GE | 
[V:4] A,A,, A,,A,, | 
[V:1] z2z b | 
[V:2] AF dB | 
[V:3] FD AG | 
[V:4] D,D F,G, | 
[V:1] af d'b | 
[V:2] AF dB | 
[V:3] FD AG | 
[V:4] D,D F,G, | 
[V:1] af ea | 
[V:2] z2z A, | 
[V:3] d3c | 
[V:4] z4 | 
[V:1] af ^df | 
[V:2] D3=C | 
[V:3] =cA/_B/ cA | 
[V:4] z2z D,, | 
[V:1] .gG, z a | 
[V:2] _B,B,/=C/ D/B,/A,/E/ | 
[V:3] _BG/A/ B/G/G/G/ | 
[V:4] D,3C, | 
[V:1] _e'3=d' | 
[V:2] A,=c/_B/ AB | 
[V:3] G/F/A/G/ FG | 
[V:4] =C,A,,/_B,,/ C,B,, | 
[V:1] c'a/_b/ =c'b | 
[V:2] e_e FG | 
[V:3] A,=C/_B,/ A,B, | 
[V:4] A,,F,,/G,,/ A,,G,, | 
[V:1] _b3a | 
[V:2] =eg/=f/ ef | 
[V:3] G3=F | 
[V:4] =C,,4 | 
[V:1] _b3a | 
[V:2] eg/=f/ ef | 
[V:3] G3=F | 
[V:4] =C,,4 | 
[V:1] _b3a | 
[V:2] eg/f/ eg | 
[V:3] GE/F/ Gc | 
[V:4] C,,3E/F/ | 
[V:1] _ba ba | 
[V:2] eg eg | 
[V:3] ce ce | 
[V:4] GE/F/ GE/F/ | 
[V:1] _ba c'a | 
[V:2] [c4e4] | 
[V:3] A, zz2 | 
[V:4] [K:clef=tenor]G4 | 
[V:1] _ba d'a | 
[V:2] d2AF | 
[V:3] A,2z2 | 
[V:4] F3d | 
[V:1] ga fa | 
[V:2] E2D2 | 
[V:3] A,2A,2 | 
[V:4] c2d2 | 
[V:1] ea aa | 
[V:2] C2z2 | 
[V:3] A,2z2 | 
[V:4] fe- e/d//c//B/A/ | 
[V:1] g4 | 
[V:2] e2E2 | 
[V:3] _B,A, CA, | 
[V:4] z A z A | 
[V:1] f3d' | 
[V:2] D2FF | 
[V:3] _B,A, DA, | 
[V:4] z A z A | 
[V:1] c'2d'2 | 
[V:2] GG FF | 
[V:3] EA, DA, | 
[V:4] z A z A | 
[V:1] f' e'- e'/d'//c'// .b/.a/ | 
[V:2] E zz2 | 
[V:3] C A, A, A, | 
[V:4] A[K:clef=bass] A,, A,, A,, | 
[V:1] g2G2 | 
[V:2] [C4E4] | 
[V:3] _B,A, =CA, | 
[V:4] _B,,A,, C,A,, | 
[V:1] F3d | 
[V:2] [D2F2][A,2F2] | 
[V:3] _B,A, DD, | 
[V:4] _B,,A,, D,D,, | 
[V:1] B3b | 
[V:2] [B,2D2][B2g2] | 
[V:3] A,G, GG, | 
[V:4] A,,G,, G,G,, | 
[V:1] e2g'2 | 
[V:2] [B2g2]^A2 | 
[V:3] A,G, ^A,E, | 
[V:4] A,,G,, ^A,,E,, | 
[V:1] g'4- | 
[V:2] ge cG | 
[V:3] C,E, =A,C | 
[V:4] =A,,C, E,A, | 
[V:1] g'/f'/c'/d'/ ^g/a/.=g/.f/ | 
[V:2] fd =AF | 
[V:3] D,F, A,D | 
[V:4] A,,D, F,A, | 
[V:1] ed2c | 
[V:2] B=F ^A.A | 
[V:3] ^G,B EE, | 
[V:4] A,,^G, A,,=G, | 
[V:1] g4- | 
[V:2] GE CG, | 
[V:3] C,E, A,C | 
[V:4] A,,C, E,A, | 
[V:1] g/f/c/d/ ^G/A/.=G/.F/ | 
[V:2] FD =A,D | 
[V:3] D,F, A,F, | 
[V:4] A,,D, F,A, | 
[V:1] ED2A/B/ | 
[V:2] A,D ^G,D | 
[V:3] F,A, =F,^G, | 
[V:4] A,,F, A,,=F, | 
[V:1] B/E.A/ A/^G.A/ | 
[V:2] =G,D G,C | 
[V:3] E,=G, E,G, | 
[V:4] A,,E, A,,E, | 
[V:1] A2d2- | 
[V:2] z2FA | 
[V:3] G,F, DF, | 
[V:4] =C,4 | 
[V:1] d2d2 | 
[V:2] z2G=F | 
[V:3] A,G, D^G, | 
[V:4] B,,3^A,, | 
[V:1] df {/e2f2} a^g | 
[V:2] =F^F FD | 
[V:3] DA, DA, | 
[V:4] =A,,4- | 
[V:1] ba2=g | 
[V:2] GE GE | 
[V:3] EC EC | 
[V:4] A,,2A,,2 | 
[V:1] gf d'f | 
[V:2] G^D F=D | 
[V:3] ^DA, =DA, | 
[V:4] =C,,2=C,2 | 
[V:1] ag d'^g | 
[V:2] GD G=F | 
[V:3] DG, DD | 
[V:4] B,,3^A,, | 
[V:1] ba d'a | 
[V:2] =F^F AF | 
[V:3] DD FD | 
[V:4] =A,,4- | 
[V:1] f'd' f'd' | 
[V:2] dA dA | 
[V:3] AF DA, | 
[V:4] A,,4 | 
[V:1] a'2-(3:2:6a'/f'/d'/a/f/d/ | 
[V:2] [d4f4]- | 
[V:3] F,D, F,D, | 
[V:4] D,A,, D,A,, | 
[V:1] (3:2:6A/F/D/A,/D/F/ (3:2:6A/d/f/a/a/a/ | 
[V:2] [df](3a/f/d/ (3:2:6A/F/D/A,/A,/A,/ | 
[V:3] A,F, A,F, | 
[V:4] F,D, F,D, | 
[V:1] g4 | 
[V:2] _B,A, EC | 
[V:3] z2_B,A, | 
[V:4] z4 | 
[V:1] g3e/a/ | 
[V:2] cE ec | 
[V:3] EC cE | 
[V:4] _B,,A,, A,A, | 
[V:1] a> z ^g3/ z/ | 
[V:2] d> z d3/ z/ | 
[V:3] F> z =F3/ z/ | 
[V:4] D, zz2 | 
[V:1] =g zz2 | 
[V:2] c zz2 | 
[V:3] E zz2 | 
[V:4] _B,4 | 
[V:1] A> z ^G3/ z/ | 
[V:2] D> z D3/ z/ | 
[V:3] F,> z =F,3/ z/ | 
[V:4] D, zz2 | 
[V:1] =G4- | 
[V:2] C4- | 
[V:3] E,4- | 
[V:4] _B,,4 | 
[V:1] G zz2 | 
[V:2] C zz2 | 
[V:3] E, zz2 | 
[V:4] A,, zz2 | 
[V:1] F> zz2 | 
[V:2] D> zz2 | 
[V:3] F,> zz2 | 
[V:4] D,,> zz2 | 
[V:1] F> zz2 | 
[V:2] D> zz2 | 
[V:3] F,> zz2 | 
[V:4] D,,> zz2 | 
[V:1] d> zz2 | 
[V:2] z4 | 
[V:3] z4 | 
[V:4] D> zz2 | 
[V:1] !fermata!d4 |]  
[V:2] !fermata!^G4 |]  
[V:3] !fermata!=F4 |]  
[V:4] !fermata!B,4 |]  


